lib/healthicons/icons/solid/people/construction_worker.svg

<svg fill="none" height="48" viewBox="0 0 48 48" width="48" xmlns="http://www.w3.org/2000/svg"><g clip-rule="evenodd" fill="#333" fill-rule="evenodd"><path d="m30.4921 17.1415c.5271-.1359 1.0661.1747 1.2127.6989.1926.6881.2952 1.4127.2952 2.1596 0 4.4183-3.5817 8-8 8s-8-3.5817-8-8c0-.7469.1026-1.4715.2952-2.1596.1466-.5242.6856-.8348 1.2127-.6989 3.7218.9596 9.2624.9596 12.9842 0zm-12.4534 2.1722c-.0255.225-.0387.454-.0387.6863 0 3.3137 2.6863 6 6 6s6-2.6863 6-6c0-.2323-.0132-.4613-.0387-.6863-3.6167.73-8.3059.73-11.9226 0z"/><path d="m19 28.4896c-5.9867 1.0453-13 3.7133-13 7.5105v6h36v-6c0-3.7972-7.0133-6.4652-13-7.5105v4.5104h-10zm-6 13.5104v-9h2v9zm21-9v9h2v-9z"/><path d="m25 6.05774v4.42276c0 .5522-.4477 1-1 1s-1-.4478-1-1v-4.4805c-1.1338.069-2.1323.31725-3 .69004v5.79046c0 .5522-.4477 1-1 1s-1-.4478-1-1v-4.54584c-1.3704 1.17876-2.1593 2.70654-2.411 4.04584-.0088.0469-.017.0937-.0245.1402-.0064.0063-.0128.0126-.0191.0189-.0892.6293-.0402 1.1471.0876 1.503.1866.5198-.0836 1.0925-.6034 1.2791s-1.0924-.0836-1.279-.6034c-.0167-.0464-.0325-.0933-.0474-.1407-5.80711 7.5823 26.4325 7.5782 20.5841-.0124-.0152.049-.0313.0976-.0482.1459-.1826.5212-.7532.7957-1.2744.6131-.5213-.1826-.7958-.7532-.6131-1.2744.1448-.4134.1866-.9292.1079-1.5-.0054-.004-.0112-.0082-.0174-.0126-.2163-1.352-1.0381-2.84721-2.4421-4.02557v4.36887c0 .5522-.4477 1-1 1s-1-.4478-1-1v-5.6182c-.3777-.17026-.7787-.32004-1.2028-.44557-.5575-.16335-1.1565-.28599-1.7972-.35899z"/></g></svg>

<svg width="48" height="48" viewBox="0 0 48 48" fill="none" xmlns="http://www.w3.org/2000/svg">
<path fill-rule="evenodd" clip-rule="evenodd" d="M30.4921 17.1415C31.0192 17.0056 31.5582 17.3162 31.7048 17.8404C31.8974 18.5285 32 19.2531 32 20C32 24.4183 28.4183 28 24 28C19.5817 28 16 24.4183 16 20C16 19.2531 16.1026 18.5285 16.2952 17.8404C16.4418 17.3162 16.9808 17.0056 17.5079 17.1415C21.2297 18.1011 26.7703 18.1011 30.4921 17.1415ZM18.0387 19.3137C18.0132 19.5387 18 19.7677 18 20C18 23.3137 20.6863 26 24 26C27.3137 26 30 23.3137 30 20C30 19.7677 29.9868 19.5387 29.9613 19.3137C26.3446 20.0437 21.6554 20.0437 18.0387 19.3137Z" fill="#333333"/>
<path fill-rule="evenodd" clip-rule="evenodd" d="M19 28.4896C13.0133 29.5349 6 32.2029 6 36.0001V42.0001H42V36.0001C42 32.2029 34.9867 29.5349 29 28.4896V33H19V28.4896ZM13 42V33H15V42H13ZM34 33V42H36V33H34Z" fill="#333333"/>
<path fill-rule="evenodd" clip-rule="evenodd" d="M25 6.05774V10.4805C25 11.0327 24.5523 11.4805 24 11.4805C23.4477 11.4805 23 11.0327 23 10.4805V6C21.8662 6.069 20.8677 6.31725 20 6.69004V12.4805C20 13.0327 19.5523 13.4805 19 13.4805C18.4477 13.4805 18 13.0327 18 12.4805V7.93466C16.6296 9.11342 15.8407 10.6412 15.589 11.9805C15.5802 12.0274 15.572 12.0742 15.5645 12.1207C15.5581 12.127 15.5517 12.1333 15.5454 12.1396C15.4562 12.7689 15.5052 13.2867 15.633 13.6426C15.8196 14.1624 15.5494 14.7351 15.0296 14.9217C14.5098 15.1083 13.9372 14.8381 13.7506 14.3183C13.7339 14.2719 13.7181 14.225 13.7032 14.1776C7.89609 21.7599 40.1357 21.7558 34.2873 14.1652C34.2721 14.2142 34.256 14.2628 34.2391 14.3111C34.0565 14.8323 33.4859 15.1068 32.9647 14.9242C32.4434 14.7416 32.1689 14.171 32.3516 13.6498C32.4964 13.2364 32.5382 12.7206 32.4595 12.1498C32.4541 12.1458 32.4483 12.1416 32.4421 12.1372C32.2258 10.7852 31.404 9.28999 30 8.11163V12.4805C30 13.0327 29.5523 13.4805 29 13.4805C28.4477 13.4805 28 13.0327 28 12.4805V6.8623C27.6223 6.69204 27.2213 6.54226 26.7972 6.41673C26.2397 6.25338 25.6407 6.13074 25 6.05774Z" fill="#333333"/>
</svg>
